X: 7148
T: Chuck's
R: hornpipe
M: 4/4
K: Emajor
|:B,CEF (3{F}GEc BG|FEEF Ez EB,|B,CEF {F}GEAG|GF (3EFG F2 (3{G}FEC|
B,CEF (3{F}GEc BG|FECE A,2 A,C|B,CEF {F}GEAG|1 (3FG/F/E GF (3EE/E/E EC:|2 (3FG/F/E (3GEF E2 ED||
|:CDEF B,2 G,B,|CDEc BGFE|CDEF {F}GEAG|GF=FG ^F2 (3{G}FEC|
B,CEF GzB,z|ABcd edcB|{B}cBGE AGFE|1 FB,DF E2 ED:|2 FB,DF E2 EC||

